pro/src/icons/stroke-repayment.svg

<svg width="48" height="48" viewBox="0 0 48 48" fill="none" xmlns="http://www.w3.org/2000/svg">
<path id="icon" fill="currentColor" fill-rule="evenodd" clip-rule="evenodd" d="M21.6308 4.2C20.3918 4.2 19.4069 5.18879 19.4069 6.4V41.6C19.4069 42.8112 20.3918 43.8 21.6308 43.8H41.5756C42.8146 43.8 43.7995 42.8112 43.7995 41.6V16.949C43.7995 16.3415 44.2921 15.849 44.8997 15.849C45.5074 15.849 46 16.3415 46 16.949V41.6C46 44.0408 44.0153 46 41.5756 46H21.6308C19.1911 46 17.2064 44.0408 17.2064 41.6V6.4C17.2064 3.95922 19.1911 2 21.6308 2H41.5756C44.0153 2 46 3.95921 46 6.4V9.249C46 9.85651 45.5074 10.349 44.8997 10.349C44.2921 10.349 43.7995 9.85651 43.7995 9.249V6.4C43.7995 5.18879 42.8146 4.2 41.5756 4.2H21.6308ZM13.6868 5.56031C13.8407 6.148 13.489 6.74919 12.9011 6.9031L5.84166 8.75142C4.65931 9.05954 3.96086 10.2683 4.27715 11.4366L12.7871 42.9412C12.9455 43.5277 12.5984 44.1316 12.0117 44.2899C11.4251 44.4483 10.821 44.1013 10.6626 43.5148L2.15299 12.0114C1.51681 9.6601 2.92314 7.23883 5.28595 6.62273L12.3436 4.77488C12.9315 4.62097 13.5328 4.97262 13.6868 5.56031ZM25.6584 21.6831C26.665 18.4154 29.744 16 33.452 16C34.9433 16 36.3414 16.3947 37.5418 17.0809C37.9903 17.3373 38.1409 17.8956 37.8523 18.3251C37.571 18.7437 36.9892 18.8631 36.5501 18.612C35.6361 18.0895 34.5792 17.7922 33.452 17.7922C30.8592 17.7922 28.5927 19.386 27.6648 21.6831H31.655C32.1658 21.6831 32.6086 22.0692 32.6086 22.5792C32.6086 23.0892 32.1658 23.4753 31.655 23.4753H27.2394C27.225 23.6481 27.2177 23.8231 27.2177 24C27.2177 24.4236 27.2602 24.8365 27.3409 25.235H31.655C32.1658 25.235 32.6086 25.6211 32.6086 26.1311C32.6086 26.6412 32.1658 27.0273 31.655 27.0273H28.0081C28.4953 27.8935 29.1842 28.63 30.0078 29.1749C30.9973 29.8294 32.1805 30.2078 33.452 30.2078C34.5792 30.2078 35.6361 29.9105 36.5501 29.388C36.9892 29.1369 37.571 29.2563 37.8523 29.6749C38.1409 30.1044 37.9903 30.6627 37.5418 30.9191C36.3414 31.6053 34.9433 32 33.452 32C31.7682 32 30.2045 31.497 28.9096 30.6404C27.5761 29.7582 26.5272 28.5015 25.9136 27.0273H23.9536C23.4428 27.0273 23 26.6412 23 26.1311C23 25.6211 23.4428 25.235 23.9536 25.235H25.407C25.3434 24.8321 25.3104 24.4196 25.3104 24C25.3104 23.8239 25.3163 23.6489 25.3278 23.4753H23.9536C23.4428 23.4753 23 23.0892 23 22.5792C23 22.0692 23.4428 21.6831 23.9536 21.6831H25.6584Z" />
</svg>

<svg xmlns="http://www.w3.org/2000/svg" width="48" height="48" fill="none"><path id="icon" fill="currentColor" fill-rule="evenodd" d="M21.63 4.2a2.21 2.21 0 0 0-2.223 2.2v35.2c0 1.211.985 2.2 2.224 2.2h19.945a2.21 2.21 0 0 0 2.224-2.2V16.949a1.1 1.1 0 0 1 2.2 0V41.6c0 2.44-1.985 4.4-4.424 4.4H21.63c-2.44 0-4.425-1.96-4.425-4.4V6.4c0-2.44 1.985-4.4 4.425-4.4h19.945C44.016 2 46 3.96 46 6.4v2.849a1.1 1.1 0 0 1-2.2 0V6.4c0-1.211-.985-2.2-2.224-2.2zm-7.943 1.36a1.1 1.1 0 0 1-.786 1.343l-7.06 1.848a2.187 2.187 0 0 0-1.564 2.686l8.51 31.504a1.1 1.1 0 1 1-2.124.574L2.153 12.01a4.39 4.39 0 0 1 3.133-5.388l7.058-1.848a1.1 1.1 0 0 1 1.343.785m11.971 16.123C26.665 18.415 29.744 16 33.452 16a8.2 8.2 0 0 1 4.09 1.08c.448.257.599.816.31 1.245-.281.419-.863.538-1.302.287a6.2 6.2 0 0 0-3.098-.82 6.25 6.25 0 0 0-5.787 3.891h3.99c.51 0 .954.386.954.896s-.443.896-.954.896h-4.416a6.3 6.3 0 0 0 .102 1.76h4.314c.51 0 .954.386.954.896s-.443.896-.954.896h-3.647a6.26 6.26 0 0 0 2 2.148 6.2 6.2 0 0 0 3.444 1.033 6.2 6.2 0 0 0 3.098-.82c.44-.251 1.021-.132 1.302.287.289.43.138.988-.31 1.244A8.2 8.2 0 0 1 33.452 32a8.2 8.2 0 0 1-4.542-1.36 8.05 8.05 0 0 1-2.996-3.613h-1.96c-.511 0-.954-.386-.954-.896s.443-.896.954-.896h1.453a8 8 0 0 1-.08-1.76h-1.373c-.511 0-.954-.386-.954-.896s.443-.896.954-.896z" clip-rule="evenodd"/></svg>
